X:1
T:Praises, 88.88.7
T:Praises, 88.88.7
T:Bertram Luard-Selby, 1904
T:Public Domain Courtesy of the Cyber Hymnal™
C:Bertram Luard-Selby, 1904
Z:Public Domain
Z:Courtesy of the Cyber Hymnal™
%%score ( 1 2 ) ( 3 4 )
L:1/8
Q:1/4=110
M:none
K:C
V:1 treble 
V:2 treble 
V:3 bass 
V:4 bass 
V:1
 [CG]2 | [CA]2 [CE]2 [DG]2 (AB) | [Gc]2 [^Fc]2 [Gd]2 G2 | [Ge]2 d2 [Ec]2 (BA) | %4
 G2 [^D^F]2 !fermata!E2 [=CG]2 | [CF]2 (ED) [CE]2 [DA]2 | [DG]2 (FE) [DF]2 [=CA]2 | %7
 [FB]2 [Ec]2 [Dd]2 (cB) | A2 [^FA]2 G2 [CG]2 | [CA]2 [Fd]2 [DB]2 [Ge]2 | d4 !fermata![Ec]2 |] %11
V:2
 x2 | x6 G2 | x6 G2 | x2 (GF) x E2 x | (E^C) x E2 x3 | x2 B,2 x4 | x2 ^C2 x4 | x6 G2 | %8
 (GE) x G2 x3 | x8 | (A2 GF) x2 |] %11
V:3
 [C,E,]2 | [A,,E,]2 A,2 [G,B,]2 (CD) | [E,E]2 [A,C]2 [G,B,]2 [G,B,]2 | C2 [G,B,]2 [A,C]2 (E,^F,) | %4
 [B,,G,]2 (B,A,) !fermata![E,G,]2 [E,G,]2 | [D,A,]2 [G,,G,]2 [C,G,]2 [F,A,]2 | %6
 [E,_B,]2 [A,,A,]2 [D,A,]2 A,2 | [D,F,]2 [C,G,]2 [B,,G,]2 G,2 | [C,A,]2 [D,C]2 [G,B,]2 [E,G,]2 | %9
 F,2 [D,A,]2 [G,B,]2 [E,C]2 | ([F,C]2 [G,B,]2) !fermata![C,G,]2 |] %11
V:4
 x2 | x2 A,2 F,2 x2 | x8 | C2 x2 C,2 x2 | x2 B,,2 x4 | x8 | x6 (F,E,) | x6 (E,D,) | x8 | F,2 x6 | %10
 x6 |] %11

